dist/img/logo.svg

<svg width="150" height="155" viewBox="0 0 150 155" fill="none" xmlns="http://www.w3.org/2000/svg">
<path d="M98.0277 96.5673L113.955 69.2507L111.284 64.8789L95.4393 92.0826H92.443L89.853 96.579L98.0277 96.5673Z" fill="white"/>
<path d="M31.4331 35.7821L34.1422 40.0663L49.8161 13.691H53.1622L55.7597 9.37012H46.9584L44.59 13.691H44.5907L31.4331 35.7821Z" fill="white"/>
<path d="M64.0156 13.691H95.5374L97.5432 17.0859H103.104L98.6634 9.37012H66.4317L64.0156 13.691Z" fill="white"/>
<path d="M80.8499 92.392H49.3282L47.3221 88.9971H41.7612L46.2018 96.7128H78.4336L80.8499 92.392Z" fill="white"/>
<path d="M103.014 26.3447L118.54 52.6234L116.563 55.9594L119.271 60.2253L123.717 52.9024L108.464 26.3447H103.014Z" fill="white"/>
<path d="M41.9074 79.4294L26.3812 53.1164L28.3581 49.7631L25.6499 45.4883L21.2046 52.8414L36.4569 79.4294H41.9074Z" fill="white"/>
<path d="M99.3942 29.1608C99.3942 27.1988 97.7796 25.6094 95.787 25.6094C93.7941 25.6094 92.1802 27.1988 92.1802 29.1608C92.1802 30.9647 93.5452 32.4502 95.3143 32.6786L118.583 71.9982L109.431 87.838L113.134 90.387L123.717 72.3022L99.1481 30.4419C99.3051 30.0444 99.3942 29.6132 99.3942 29.1608Z" fill="url(#paint0_linear)"/>
<path d="M63.7855 17.8672C61.7939 17.8672 60.1787 19.4347 60.1787 21.3967C60.1787 23.3587 61.7939 24.9259 63.7855 24.9259C64.9262 24.9259 65.9414 24.4935 66.6022 23.5676H112.878L122.492 40.0667L126 37.6733L115.441 19.2468H66.6019C65.9411 18.3209 64.9259 17.8672 63.7855 17.8672Z" fill="url(#paint1_linear)"/>
<path d="M40.026 40.5128C38.3917 40.8513 37.1558 42.2772 37.1558 43.9873C37.1558 45.9493 38.7659 47.5388 40.7588 47.5388C42.7502 47.5388 44.3635 45.9493 44.3635 43.9873C44.3635 43.4605 44.2428 42.9636 44.034 42.5142L66.6427 4.43163H83.5306V0.110799H64.0968V0L40.026 40.5128Z" fill="url(#paint2_linear)"/>
<path d="M45.8203 74.9696C45.6488 75.3834 45.5523 75.8356 45.5523 76.3102C45.5523 78.2725 47.1669 79.8626 49.1598 79.8626C51.152 79.8626 52.7669 78.2728 52.7669 76.3102C52.7669 74.548 51.4614 73.0894 49.7512 72.8113L27.1812 33.8395L36.2038 18.7015L32.3186 16.4648L21.9551 33.7519L21.9601 33.7587L21.9551 33.7615L45.8203 74.9696Z" fill="url(#paint3_linear)"/>
<path d="M108.73 60.414C108.73 58.4524 107.114 56.8623 105.122 56.8623C103.131 56.8623 101.515 58.4521 101.515 60.414C101.515 60.8631 101.603 61.3186 101.757 61.714L78.2993 101.65H60.6484V105.97H80.894L80.8952 105.999L105.643 63.9099C107.388 63.6605 108.73 62.2007 108.73 60.414Z" fill="url(#paint4_linear)"/>
<path d="M78.6741 86.8368C79.3352 87.4541 80.3505 88.1238 81.4908 88.1238C83.4827 88.1238 85.0979 86.484 85.0979 84.5224C85.0979 82.561 83.483 80.9216 81.4908 80.9216C80.3505 80.9216 79.3355 81.5901 78.6744 82.2073H32.8181L23.909 66.8125L20 69.0328L30.1889 86.7257L30.2441 86.7087V86.8368H78.6741Z" fill="url(#paint5_linear)"/>
<path d="M20.0229 139V122.2H23.5029V139H20.0229ZM28.962 122.2H32.274L40.626 133.072V122.2H43.89V139H40.818L32.25 127.768V139H28.962V122.2ZM49.3386 139V122.2H52.8186V135.928H62.0106V139H49.3386ZM66.8089 139V122.2H70.2889V139H66.8089ZM92.4279 130.624C92.4279 131.856 92.2119 133.008 91.7799 134.08C91.3639 135.136 90.7799 136.048 90.0279 136.816C89.2919 137.568 88.4039 138.168 87.3639 138.616C86.3239 139.048 85.2039 139.264 84.0039 139.264C82.7559 139.264 81.5879 139.04 80.4999 138.592C79.4119 138.144 78.4679 137.536 77.6679 136.768C76.8839 135.984 76.2599 135.064 75.7959 134.008C75.3319 132.952 75.0999 131.816 75.0999 130.6C75.0999 129.384 75.3239 128.248 75.7719 127.192C76.2359 126.136 76.8599 125.224 77.6439 124.456C78.4439 123.672 79.3879 123.056 80.4759 122.608C81.5639 122.16 82.7239 121.936 83.9559 121.936C85.3479 121.936 86.6599 122.216 87.8919 122.776C89.1239 123.336 90.1399 124.104 90.9399 125.08L88.5159 127.312C87.9239 126.608 87.2359 126.072 86.4519 125.704C85.6839 125.32 84.8519 125.128 83.9559 125.128C83.2039 125.128 82.4999 125.272 81.8439 125.56C81.2039 125.832 80.6439 126.216 80.1639 126.712C79.6999 127.192 79.3319 127.768 79.0599 128.44C78.8039 129.096 78.6759 129.816 78.6759 130.6C78.6759 131.384 78.8119 132.112 79.0839 132.784C79.3559 133.456 79.7319 134.04 80.2119 134.536C80.6919 135.016 81.2599 135.4 81.9159 135.688C82.5879 135.96 83.2999 136.096 84.0519 136.096C85.2359 136.096 86.2519 135.768 87.0999 135.112C87.9639 134.456 88.4999 133.616 88.7079 132.592H83.7399V129.568H92.4279V130.624ZM97.2026 139V122.2H100.683V128.944H108.411V122.2H111.891V139H108.411V132.136H100.683V139H97.2026ZM116.265 125.272V122.2H131.049V125.272H125.409V139H121.929V125.272H116.265Z" fill="white"/>
<defs>
<linearGradient id="paint0_linear" x1="107.949" y1="25.6094" x2="112.465" y2="90.3366" gradientUnits="userSpaceOnUse">
<stop stop-color="#E00480"/>
<stop offset="0.520833" stop-color="#FB0010"/>
<stop offset="1" stop-color="#FF7A00"/>
</linearGradient>
<linearGradient id="paint1_linear" x1="62.6071" y1="22.2616" x2="125.931" y2="40.7625" gradientUnits="userSpaceOnUse">
<stop stop-color="#9816FF"/>
<stop offset="1" stop-color="#FF0000"/>
</linearGradient>
<linearGradient id="paint2_linear" x1="79.5639" y1="-4.84056e-07" x2="37.6544" y2="45.1693" gradientUnits="userSpaceOnUse">
<stop stop-color="#9916FF"/>
<stop offset="0.990561" stop-color="#1961F3"/>
</linearGradient>
<linearGradient id="paint3_linear" x1="30.8697" y1="16.2672" x2="48.618" y2="76.3512" gradientUnits="userSpaceOnUse">
<stop stop-color="#1A5AFF"/>
<stop offset="1" stop-color="#1FC74D"/>
</linearGradient>
<linearGradient id="paint4_linear" x1="106.084" y1="59.0758" x2="61.1726" y2="106.861" gradientUnits="userSpaceOnUse">
<stop stop-color="#FE6B02"/>
<stop offset="1" stop-color="#FFBE16"/>
</linearGradient>
<linearGradient id="paint5_linear" x1="85.2157" y1="85.1908" x2="20.1001" y2="70.201" gradientUnits="userSpaceOnUse">
<stop stop-color="#FFB815"/>
<stop offset="1" stop-color="#06C954"/>
</linearGradient>
</defs>
</svg>

<svg width="150" height="155" fill="none" xmlns="http://www.w3.org/2000/svg"><path d="M98.028 96.567l15.927-27.316-2.671-4.372-15.845 27.204h-2.996l-2.59 4.496 8.175-.012zM31.433 35.782l2.71 4.284 15.673-26.375h3.346l2.598-4.32h-8.802l-2.368 4.32-13.157 22.091zm32.583-22.091h31.521l2.006 3.395h5.561l-4.44-7.716H66.431l-2.416 4.321zM80.85 92.392H49.328l-2.006-3.395h-5.56l4.44 7.716h32.232l2.416-4.321zm22.164-66.047l15.526 26.278-1.977 3.336 2.708 4.266 4.446-7.323-15.253-26.557h-5.45zM41.907 79.43L26.381 53.115l1.977-3.353-2.708-4.275-4.445 7.353 15.252 26.59h5.45z" fill="#fff"/><path d="M99.394 29.16c0-1.961-1.614-3.55-3.607-3.55s-3.607 1.589-3.607 3.55c0 1.805 1.365 3.29 3.134 3.519l23.269 39.32-9.152 15.839 3.703 2.549 10.583-18.085-24.569-41.86a3.48 3.48 0 00.246-1.281z" fill="url(#paint0_linear)"/><path d="M63.785 17.867c-1.991 0-3.606 1.568-3.606 3.53 0 1.962 1.615 3.529 3.606 3.529 1.141 0 2.156-.432 2.817-1.358h46.276l9.614 16.499L126 37.673l-10.559-18.426h-48.84c-.66-.926-1.675-1.38-2.816-1.38z" fill="url(#paint1_linear)"/><path d="M40.026 40.513c-1.634.338-2.87 1.764-2.87 3.474 0 1.962 1.61 3.552 3.603 3.552 1.991 0 3.605-1.59 3.605-3.552 0-.526-.121-1.023-.33-1.473L66.643 4.432H83.53V.11H64.097V0L40.026 40.513z" fill="url(#paint2_linear)"/><path d="M45.82 74.97a3.492 3.492 0 00-.268 1.34c0 1.962 1.615 3.553 3.608 3.553 1.992 0 3.607-1.59 3.607-3.553 0-1.762-1.306-3.22-3.016-3.499L27.181 33.84l9.023-15.137-3.885-2.237-10.364 17.287.005.007-.005.002L45.82 74.97z" fill="url(#paint3_linear)"/><path d="M108.73 60.414c0-1.962-1.616-3.552-3.608-3.552-1.991 0-3.607 1.59-3.607 3.552 0 .45.088.905.242 1.3L78.299 101.65H60.65v4.32h20.245l.001.029 24.748-42.09c1.745-.248 3.087-1.708 3.087-3.495z" fill="url(#paint4_linear)"/><path d="M78.674 86.837c.661.617 1.676 1.287 2.817 1.287a3.622 3.622 0 003.607-3.602c0-1.961-1.615-3.6-3.607-3.6-1.14 0-2.156.668-2.817 1.285H32.818L23.91 66.813 20 69.032l10.189 17.693.055-.017v.128h48.43z" fill="url(#paint5_linear)"/><path d="M20.023 139v-16.8h3.48V139h-3.48zm8.939-16.8h3.312l8.352 10.872V122.2h3.264V139h-3.072l-8.568-11.232V139h-3.288v-16.8zM49.339 139v-16.8h3.48v13.728h9.192V139H49.339zm17.47 0v-16.8h3.48V139h-3.48zm25.619-8.376a9.159 9.159 0 01-.648 3.456 8.109 8.109 0 01-1.752 2.736c-.736.752-1.624 1.352-2.664 1.8a8.671 8.671 0 01-3.36.648 9.112 9.112 0 01-3.504-.672 8.978 8.978 0 01-2.832-1.824 8.957 8.957 0 01-1.872-2.76 8.377 8.377 0 01-.696-3.408c0-1.216.224-2.352.672-3.408a8.663 8.663 0 011.872-2.736c.8-.784 1.744-1.4 2.832-1.848a9.05 9.05 0 013.48-.672 9.4 9.4 0 013.936.84c1.232.56 2.248 1.328 3.048 2.304l-2.424 2.232a6.028 6.028 0 00-2.064-1.608 5.503 5.503 0 00-2.496-.576c-.752 0-1.456.144-2.112.432-.64.272-1.2.656-1.68 1.152a5.333 5.333 0 00-1.104 1.728 5.893 5.893 0 00-.384 2.16c0 .784.136 1.512.408 2.184a5.407 5.407 0 001.128 1.752c.48.48 1.048.864 1.704 1.152a5.639 5.639 0 002.136.408c1.184 0 2.2-.328 3.048-.984.864-.656 1.4-1.496 1.608-2.52H83.74v-3.024h8.688v1.056zM97.203 139v-16.8h3.48v6.744h7.728V122.2h3.48V139h-3.48v-6.864h-7.728V139h-3.48zm19.062-13.728V122.2h14.784v3.072h-5.64V139h-3.48v-13.728h-5.664z" fill="#fff"/><defs><linearGradient id="paint0_linear" x1="107.949" y1="25.609" x2="112.465" y2="90.337" gradientUnits="userSpaceOnUse"><stop stop-color="#E00480"/><stop offset=".521" stop-color="#FB0010"/><stop offset="1" stop-color="#FF7A00"/></linearGradient><linearGradient id="paint1_linear" x1="62.607" y1="22.262" x2="125.931" y2="40.763" gradientUnits="userSpaceOnUse"><stop stop-color="#9816FF"/><stop offset="1" stop-color="red"/></linearGradient><linearGradient id="paint2_linear" x1="79.564" y1="0" x2="37.654" y2="45.169" gradientUnits="userSpaceOnUse"><stop stop-color="#9916FF"/><stop offset=".991" stop-color="#1961F3"/></linearGradient><linearGradient id="paint3_linear" x1="30.87" y1="16.267" x2="48.618" y2="76.351" gradientUnits="userSpaceOnUse"><stop stop-color="#1A5AFF"/><stop offset="1" stop-color="#1FC74D"/></linearGradient><linearGradient id="paint4_linear" x1="106.084" y1="59.076" x2="61.173" y2="106.861" gradientUnits="userSpaceOnUse"><stop stop-color="#FE6B02"/><stop offset="1" stop-color="#FFBE16"/></linearGradient><linearGradient id="paint5_linear" x1="85.216" y1="85.191" x2="20.1" y2="70.201" gradientUnits="userSpaceOnUse"><stop stop-color="#FFB815"/><stop offset="1" stop-color="#06C954"/></linearGradient></defs></svg>
